Newaita/actions/symbolic/media-eject-symbolic.svg

<svg height="16" viewBox="0 0 16 16" width="16" xmlns="http://www.w3.org/2000/svg"><g fill="#424242"><path d="m1.984375 13.355469v-.660157c0-.367187.296875-.660156.660156-.660156h10.585938c.363281 0 .660156.292969.660156.660156v.660157c0 .367187-.296875.664062-.660156.664062h-10.585938c-.363281 0-.660156-.296875-.660156-.664062zm0 0"/><path d="m7.964844 2.113281c-.21875-.007812-.429688.09375-.558594.269531l-5.292969 7.277344c-.316406.4375-.003906 1.046875.53125 1.046875h10.585938c.539062 0 .847656-.609375.53125-1.046875l-5.289063-7.277344c-.121094-.160156-.304687-.261718-.507812-.269531zm0 0"/></g></svg>

<?xml version="1.0" encoding="UTF-8"?>
<svg xmlns="http://www.w3.org/2000/svg" xmlns:xlink="http://www.w3.org/1999/xlink" width="16px" height="16px" viewBox="0 0 16 16" version="1.1">
<g id="surface1">
<path style=" stroke:none;fill-rule:nonzero;fill:rgb(25.882354%,25.882354%,25.882354%);fill-opacity:1;" d="M 1.984375 13.355469 L 1.984375 12.695312 C 1.984375 12.328125 2.28125 12.035156 2.644531 12.035156 L 13.230469 12.035156 C 13.59375 12.035156 13.890625 12.328125 13.890625 12.695312 L 13.890625 13.355469 C 13.890625 13.722656 13.59375 14.019531 13.230469 14.019531 L 2.644531 14.019531 C 2.28125 14.019531 1.984375 13.722656 1.984375 13.355469 Z M 1.984375 13.355469 "/>
<path style=" stroke:none;fill-rule:nonzero;fill:rgb(25.882354%,25.882354%,25.882354%);fill-opacity:1;" d="M 7.964844 2.113281 C 7.746094 2.105469 7.535156 2.207031 7.40625 2.382812 L 2.113281 9.660156 C 1.796875 10.097656 2.109375 10.707031 2.644531 10.707031 L 13.230469 10.707031 C 13.769531 10.707031 14.078125 10.097656 13.761719 9.660156 L 8.472656 2.382812 C 8.351562 2.222656 8.167969 2.121094 7.964844 2.113281 Z M 7.964844 2.113281 "/>
</g>
</svg>
